img/svg/quotes.svg

<svg width="40" height="40" viewBox="0 0 40 40" fill="none" xmlns="http://www.w3.org/2000/svg">
<path d="M16.6383 5V17.3183C16.6383 26.825 10.42 33.2683 1.66667 35L0.00833333 31.415C4.06167 29.8867 6.66667 25.3517 6.66667 21.6667H0V5H16.6383ZM40 5V17.3183C40 26.825 33.7533 33.27 25 35L23.34 31.415C27.395 29.8867 30 25.3517 30 21.6667H23.3617V5H40Z" fill="#212529"/>
</svg>

<svg width="40" height="40" viewBox="0 0 40 40" fill="none" xmlns="http://www.w3.org/2000/svg"><path d="M16.638 5v12.318c0 9.507-6.218 15.95-14.971 17.682L.008 31.415c4.054-1.528 6.659-6.063 6.659-9.748H0V5h16.638zM40 5v12.318C40 26.825 33.753 33.27 25 35l-1.66-3.585c4.055-1.528 6.66-6.063 6.66-9.748h-6.638V5H40z" fill="#212529"/></svg>
